X:1
T:Title
%%score 1 { 2 | 3 }
L:1/8
Q:1/4=120
M:3/4
K:Ab
V:1 treble nm="Grand Piano, Soprano"
V:2 bass nm="Choir Pad, Bass"
V:3 bass 
V:1
 [Ac]2 [GB]2 [_Gc]2 | [Fd]4 [=EA]2 | [Ec]4 E2 | [DB]4 [CA]2 | [CA]6 | [Ac]2 [GB]2 [_Gc]2 | %6
w: By~Powell~George~Fithian,~1901 * *||||||
 [Fd]4 [=EA]2 | [Ec]4 E2 | [DB]4 [CA]2 | [CA]6 | [FA]2 [FA]2 [FA]2 | [EG]4 [DF]2 | [CE]6 | %13
w: |||||||
 [Ec]2 [Ec]2 [Ec]2 | [=Dc]4 [DB]2 | [EB]6 | [Fd]2 [Fd]2 [Fd]2 | [=Ec]4 [EG]2 | [FA]4 [FB]2 | %19
w: ||||||
 [EA]4 [DG]2 | [CA]6- | [CA]6 |] %22
w: |||
V:2
 E6 | D6 | C4 E,2 | G,4 A,2 | A,6 | E6 | D6 | C4 E,2 | G,4 A,2 | A,6 | A,6 | A,4 A,2 | A,6 | %13
 A,4 A,2 | A,4 A,2 | G,6 | B,4 A,2 | G,4[K:treble] C2 | C4 D2 | C4 B,2 | A,6- | A,6 |] %22
V:3
 A,,6 | A,,6 | A,,4 z2 | E,4 [A,,E,]2 | [A,,E,]6 | A,,6 | A,,6 | A,,4 z2 | E,4 [A,,E,]2 | %9
 [A,,E,]6 | D,6 | D,4 D,2 | A,,6 | z6 | F,4 B,,2 | E,6 | B,,6 | C,4 C,2 | F,4 D,2 | E,4 E,2 | %20
 A,,6- | A,,6 |] %22

